source/img/svg/leaf.svg

<svg width="80" height="80" viewBox="0 0 80 80" fill="none" xmlns="http://www.w3.org/2000/svg">
<rect width="80" height="80" fill="#68B738"/>
<g clip-path="url(#clip0_2403_794)">
<path d="M51.7754 27.767C51.6751 27.317 51.2963 27 50.8641 27C50.8623 27 50.8604 27 50.8585 27C45.9207 27.033 33.9132 27.916 29.0654 35.38C26.5473 39.258 26.3307 44.293 28.4213 50.345C28.4373 50.392 28.4701 50.424 28.4916 50.467C27.7444 52.44 27.4548 53.753 27.4473 53.79C27.3385 54.33 27.6619 54.862 28.1682 54.978C28.2338 54.993 28.2994 55 28.3651 55C28.7973 55 29.1863 54.679 29.281 54.21C29.3007 54.108 31.6894 43.837 40.1344 37.832C40.5657 37.526 40.6819 36.905 40.3941 36.445C40.1063 35.985 39.5251 35.86 39.0938 36.168C34.3051 39.573 31.3557 44.176 29.6213 47.824C28.3801 43.246 28.7054 39.447 30.6076 36.519C34.351 30.755 43.2301 29.365 48.5898 29.071C47.4366 30.872 46.1766 34.174 46.1766 40C46.1766 43.12 45.3469 45.522 43.7119 47.14C41.0907 49.731 36.8326 49.974 33.7182 49.724C33.2007 49.679 32.7516 50.095 32.7123 50.646C32.6729 51.196 33.0601 51.676 33.5757 51.718C34.1991 51.769 34.8648 51.8 35.5566 51.8C38.7273 51.8 42.4257 51.137 44.986 48.606C47.0204 46.595 48.0516 43.7 48.0516 40.001C48.0516 30.902 51.2673 28.905 51.2832 28.896C51.6732 28.687 51.8776 28.219 51.7754 27.767Z" fill="white"/>
</g>
<defs>
<clipPath id="clip0_2403_794">
<rect width="30" height="32" fill="white" transform="translate(24 25)"/>
</clipPath>
</defs>
</svg>

<svg viewBox="0 0 80 80" fill="none" xmlns="http://www.w3.org/2000/svg">
    <path fill="#68B738" d="M0 0h80v80H0z"/>
    <g clip-path="url(#a)">
      <path fill="#fff" d="M51.78 27.77a.95.95 0 0 0-.92-.77c-4.94.03-16.95.92-21.8 8.38-2.51 3.88-2.73 8.91-.64 14.96l.07.13a25.92 25.92 0 0 0-1.04 3.32c-.11.54.21 1.07.72 1.19l.2.02c.43 0 .82-.32.91-.79.02-.1 2.4-10.37 10.85-16.38.44-.3.55-.92.26-1.38a.9.9 0 0 0-1.3-.28c-4.78 3.4-7.73 8-9.47 11.65-1.24-4.57-.91-8.37.99-11.3 3.74-5.77 12.62-7.16 17.98-7.45-1.15 1.8-2.41 5.1-2.41 10.93 0 3.12-.83 5.52-2.47 7.14-2.62 2.6-6.88 2.83-10 2.58-.5-.04-.96.38-1 .93-.04.55.35 1.03.87 1.07.62.05 1.28.08 1.98.08 3.17 0 6.87-.66 9.43-3.2 2.03-2 3.06-4.9 3.06-8.6 0-9.1 3.22-11.1 3.23-11.1.4-.21.6-.68.5-1.13Z"/>
    </g>
    <defs>
      <clipPath id="a">
        <path fill="#fff" d="M24 25h30v32H24z"/>
      </clipPath>
    </defs>
</svg>
